X: 18290
T: Humours Of Toomagh, The
R: reel
M: 4/4
K: Dmajor
d|fedB ~A3F|FEDF ~A3d|fedB ~A3F|FEDE FEEd|
fedB ~A3F|FEDF ~A3B|d2fd ~a3f|1 edBA FEE:|2 edBA FEE2||
d2fd adfd|~a3b afef|d2fd adfd|ABde feef|
d2fd adfd|~a3b afea|bafd e2fe|1 dBAF FEE2:|2 dBAF FEE||

